X: 57
T: Soft Horse Reel
T: The Soft Horse Reel
C:Phil Cunningham
M:C
L:1/8
K:C
|C2 GC EDCE| Dddc dcAB| cA (3BAG AcGE| FD (3EDC A,CG,A,|
C2 GC EDCE| Dddc dcAB| cA (3 BAG AcGE| FEDE C4 :|
|:AE(3EEE ABcB| AF (3FFF ABcA| BG (3GGG BcdG|^FAdc BG=FD|
C2 GC EDCE| Dddc dcAB| cA (3BAG AcGE|1 FEDE C2 EG:|2 FEDE C4 ||
K:Bmin
D2 AD FEDF| Eeed edBc| dB (3cBA BdAF| GE (3FED B,DA,B,|
D2 AD FEDF| Eeed edBc| dB (3cBA BdAF| GFEF D4 :|
|: BF (3FFF Bcdc| BG (3GGG BcdB| cA (3AAA cdeA| ^GBed cA=GE|
D2 AD FEDF| Eeed edBc| dB (3cBA BdAF|1 GFEF D2 FA :|2 GFEF D4 ||

%%sep 2 1 500

